docs/src/static/backpack-logo-pride-sky-grey.svg

<svg viewBox="0 0 595 130" xmlns="http://www.w3.org/2000/svg"><g fill="none"><g fill="#fff" transform="translate(144 34)"><path d="m50.3 21.8c0 3-1 5.9-3 8.5-2 2.7-4.7 4.6-8.3 5.9 4.1.7 7.5 2.7 10.3 6s4.1 6.7 4.1 10.4c0 5.9-2.2 10.5-6.7 14.1s-10.4 5.3-17.8 5.3h-28.9v-69.1l26 .1c7.2 0 13 1.7 17.5 5.1s6.8 8 6.8 13.7zm-34.9 10.2h6.3c8.7 0 13.1-3.2 13.1-9.5 0-2.4-.8-4.2-2.5-5.5s-3.8-1.9-6.3-1.9h-10.7v16.9zm8 10.7h-8v17.3h13.6c2.6 0 4.8-.7 6.5-2.1s2.5-3.2 2.5-5.5c0-2.9-1-5.2-3-7-2.1-1.9-5.9-2.7-11.6-2.7z"/><path d="m97.1 21.5h14.7v50.5h-14.7v-7.4c-3.9 5.7-9.2 8.5-15.9 8.5-7.5 0-13.5-2.5-17.9-7.6-4.5-5.1-6.7-11.4-6.7-19 0-7.4 2.2-13.6 6.5-18.6s10.3-7.5 17.9-7.5c3.3 0 6.4.7 9.2 2.2 2.9 1.4 5.2 3.4 7 5.8v-6.9zm-25.8 25.1c0 4.1 1.2 7.6 3.6 10.4s5.5 4.2 9.5 4.2c3.8 0 7-1.2 9.5-3.6s3.8-5.8 3.8-10.2c0-4.6-1.3-8.3-3.8-11s-5.8-4.1-9.9-4.1c-3.9 0-7 1.4-9.2 4.1-2.4 2.7-3.5 6.1-3.5 10.2z"/><path d="m124.4 65.6c-5.2-5-7.7-11.3-7.7-18.9s2.6-13.9 7.7-18.9c5.2-5 12-7.4 20.6-7.4 7 0 13.9 2.5 20.7 7.5l-6.7 10.7c-3.8-3.4-8.2-5-13.3-5-4.3 0-7.7 1.2-10.4 3.6-2.6 2.4-3.9 5.6-3.9 9.5s1.3 7 3.9 9.5 6.1 3.6 10.4 3.6c5.1 0 9.6-1.7 13.3-5l6.7 10.7c-6.8 5-13.7 7.5-20.7 7.5-8.6 0-15.4-2.4-20.6-7.4z"/><path d="m184.9 42 14.4-20.5h16.3v2l-16.8 21.1 6.6 10.6c2 3 4.3 4.5 6.9 4.5 2 0 3.8-.6 5.4-1.8l5.5 10.4c-3.7 3.3-8.1 4.9-13.2 4.9-6.4 0-11.4-2.6-15-7.7l-10.2-16.4v23h-14.7v-71.3h14.7v41.2z"/><path d="m239.9 95.1h-14.7v-73.7h14.7v7.4c3.9-5.7 9.2-8.5 15.9-8.5 7.5 0 13.5 2.5 18 7.6s6.7 11.4 6.7 19c0 7.4-2.2 13.6-6.5 18.6s-10.3 7.5-17.9 7.5c-3.3 0-6.4-.7-9.2-2.2-2.9-1.4-5.2-3.4-7-5.8zm25.9-48.2c0-4.1-1.2-7.6-3.6-10.4s-5.5-4.2-9.5-4.2c-3.8 0-7 1.2-9.5 3.6s-3.8 5.8-3.8 10.2c0 4.6 1.2 8.3 3.8 11 2.5 2.7 5.8 4.1 9.9 4.1 3.9 0 7-1.4 9.2-4.1 2.3-2.7 3.5-6.1 3.5-10.2z"/><path d="m325.3 21.5h14.7v50.5h-14.7v-7.4c-3.9 5.7-9.2 8.5-15.9 8.5-7.5 0-13.5-2.5-17.9-7.6-4.5-5.1-6.7-11.4-6.7-19 0-7.4 2.2-13.6 6.5-18.6s10.3-7.5 17.9-7.5c3.3 0 6.4.7 9.2 2.2 2.9 1.4 5.2 3.4 7 5.8zm-25.8 25.1c0 4.1 1.2 7.6 3.6 10.4s5.5 4.2 9.5 4.2c3.8 0 7-1.2 9.5-3.6s3.8-5.8 3.8-10.2c0-4.6-1.3-8.3-3.8-11s-5.8-4.1-9.9-4.1c-3.9 0-7 1.4-9.2 4.1-2.4 2.7-3.5 6.1-3.5 10.2z"/><path d="m352.1 65.6c-5.2-5-7.7-11.3-7.7-18.9s2.6-13.9 7.7-18.9c5.2-5 12-7.4 20.6-7.4 7 0 13.9 2.5 20.7 7.5l-6.7 10.7c-3.8-3.4-8.2-5-13.3-5-4.3 0-7.7 1.2-10.4 3.6-2.6 2.4-3.9 5.6-3.9 9.5s1.3 7 3.9 9.5 6.1 3.6 10.4 3.6c5.1 0 9.6-1.7 13.3-5l6.7 10.7c-6.8 5-13.7 7.5-20.7 7.5-8.6 0-15.4-2.4-20.6-7.4z"/><path d="m412.6 42 14.4-20.5h16.3v2l-16.8 21.1 6.6 10.6c2 3 4.3 4.5 6.9 4.5 2 0 3.8-.6 5.4-1.8l5.5 10.4c-3.7 3.3-8.1 4.9-13.2 4.9-6.4 0-11.4-2.6-15-7.7l-10.2-16.4v23h-14.7v-71.3h14.7z"/></g><path d="m10 101.7h-2.4c-1.3 0-2.4-1.1-2.4-2.4v-24.3c0-1.3 1.1-2.4 2.4-2.4h2.4z" fill="#0870e3"/><path d="m97.6 99.2c0 1.3-1.1 2.4-2.4 2.4h-2.4v-29.2h2.4c1.3 0 2.4 1.1 2.4 2.4z" fill="#0870e3"/><g transform="translate(13 16)"><path d="m75.6 17.4h-75.6l16.6-17.2h44.9z" fill="#d1435b"/><path d="m0 13.1h75.6v21.4h-75.6z" fill="#ff9400"/><path d="m0 32.4h75.6v19.3h-75.6z" fill="#ffb54c"/><path d="m0 49.5h75.6v19.3h-75.6z" fill="#03a698"/><path d="m0 66.6h75.6v19.3h-75.6z" fill="#0870e3"/><path d="m0 85.9h75.6v17.2h-75.6z" fill="#5a489b"/></g><path d="m22.6 76.8h57.5v34.2h-57.5z" fill="#03a698"/><g fill="#111236"><path d="m80.6 74.9h-58.4c-1.3 0-2.4 1.1-2.4 2.4v34.1c0 1.3 1.1 2.4 2.4 2.4h58.4c1.3 0 2.4-1.1 2.4-2.4v-34.1c0-1.3-1.1-2.4-2.4-2.4zm-2.5 34.1h-53.5v-17h7.3 4.9 41.4v17zm0-21.9h-53.5v-7.3h53.5z"/><path d="m33 91.9v7.3c0 1.3 1.1 2.4 2.4 2.4s2.4-1.1 2.4-2.4v-7.3z"/><path d="m95.2 67.6h-2.4v-24.3c0-14.7-10.1-27.4-24.4-30.8-.9-9.3-7.7-12.2-16.9-12.2-11.2 0-16.2 4.1-16.9 12.2-14.3 3.4-24.4 16.1-24.4 30.8v24.3h-2.4c-4 0-7.3 3.3-7.3 7.3v24.3c0 4 3.3 7.3 7.3 7.3h2.4v4.9c0 6.7 5.4 12.2 12.2 12.2h58.4c6.7 0 12.2-5.4 12.2-12.2v-4.9h2.4c4 0 7.3-3.3 7.3-7.3v-24.3c-.3-4-3.5-7.3-7.5-7.3zm-85.2 34.1h-2.4c-1.3 0-2.4-1.1-2.4-2.4v-24.3c0-1.3 1.1-2.4 2.4-2.4h2.4zm41.4-96.5c7.4 0 10 .8 11.2 6.5h-22.4c1.2-5.7 5.4-6.5 11.2-6.5zm-36.5 38.1c0-14.8 12-26.7 26.8-26.8h19.5c14.8 0 26.7 12 26.8 26.8v68.1c0 4-3.3 7.3-7.3 7.3h-58.4c-4 0-7.3-3.3-7.3-7.3zm82.7 55.9c0 1.3-1.1 2.4-2.4 2.4h-2.4v-29.2h2.4c1.3 0 2.4 1.1 2.4 2.4z"/><g transform="translate(27 32)"><path d="m24.4 30.7c.5 0 1-.1 1.4-.4l5.3-3c1.1-.6 2.3-.9 3.5-.7 6.4.7 10.9 1.9 12.2 2.3.3.1.6 0 .7-.2.2-.3.5-.7.7-1.3s.2-1.1.2-1.5c0-.3-.2-.6-.5-.6-2.1-.6-11.2-3.1-23.5-3.1s-21.4 2.5-23.5 3.1c-.3.1-.5.3-.5.6s0 .8.2 1.5.5 1.1.7 1.3.5.3.7.2c1.3-.4 5.8-1.6 12.2-2.3 1.2-.1 2.4.1 3.5.7l5.3 3c.4.3.9.4 1.4.4z"/><path d="m15.6 13.7c.3.5.7.8 1.3 1 .5.1 1.1.1 1.6-.2s.8-.7 1-1.3.1-1.1-.2-1.6l-4.7-8.2c-.1-.3-.5-.4-.7-.3-.4 0-.9.2-1.5.6s-1.1.7-1.3 1c-.2.2-.2.6-.1.8z"/><path d="m11.3 19.6c.5.3 1.1.3 1.6.2s1-.5 1.3-1 .3-1.1.2-1.6-.5-1-1-1.3l-8.2-4.7c-.3-.1-.6-.1-.8.1-.3.2-.7.6-1 1.3-.4.6-.6 1.2-.6 1.5s.1.6.3.7z"/><path d="m26.5 10.8c0 .6-.2 1.1-.6 1.5s-.9.6-1.5.6-1.1-.2-1.5-.6-.6-.9-.6-1.5v-9.4c0-.3.2-.6.5-.7.3-.2.9-.3 1.6-.3s1.3.1 1.6.3c.3.1.5.4.5.7z"/><path d="m33.1 13.7c-.3.5-.7.8-1.3 1-.5.1-1.1.1-1.6-.2s-.8-.7-1-1.3-.1-1.1.2-1.6l4.7-8.2c.1-.3.5-.4.7-.3.4 0 .9.2 1.5.6s1.1.7 1.3 1c.2.2.2.6.1.8z"/><path d="m37.5 19.6c-.5.3-1.1.3-1.6.2s-1-.5-1.3-1-.3-1.1-.2-1.6.5-1 1-1.3l8.2-4.7c.3-.1.6-.1.8.1.3.2.7.6 1 1.3.4.6.6 1.2.6 1.5s-.1.6-.3.7z"/></g></g></g></svg>

<svg viewBox="0 0 595 130" xmlns="http://www.w3.org/2000/svg" xmlns:xlink="http://www.w3.org/1999/xlink">
    <g id="Page-1" stroke="none" stroke-width="1" fill="none" fill-rule="evenodd">
        <g id="Backpack_Logo_Horizontal_SkyGrey_White_Pride" fill-rule="nonzero">
            <g id="Group" transform="translate(144.000000, 34.000000)" fill="#FFFFFF">
                <path d="M50.3,21.8 C50.3,24.8 49.3,27.7 47.3,30.3 C45.3,33 42.6,34.9 39,36.2 C43.1,36.9 46.5,38.9 49.3,42.2 C52.1,45.5 53.4,48.9 53.4,52.6 C53.4,58.5 51.2,63.1 46.7,66.7 C42.2,70.3 36.3,72 28.9,72 L0,72 L0,2.9 L26,3 C33.2,3 39,4.7 43.5,8.1 C48,11.5 50.3,16.1 50.3,21.8 Z M15.4,32 L21.7,32 C30.4,32 34.8,28.8 34.8,22.5 C34.8,20.1 34,18.3 32.3,17 C30.6,15.7 28.5,15.1 26,15.1 L15.3,15.1 L15.3,32 L15.4,32 Z M23.4,42.7 L15.4,42.7 L15.4,60 L29,60 C31.6,60 33.8,59.3 35.5,57.9 C37.2,56.5 38,54.7 38,52.4 C38,49.5 37,47.2 35,45.4 C32.9,43.5 29.1,42.7 23.4,42.7 Z" id="Shape"></path>
                <path d="M97.1,21.5 L111.8,21.5 L111.8,72 L97.1,72 L97.1,64.6 C93.2,70.3 87.9,73.1 81.2,73.1 C73.7,73.1 67.7,70.6 63.3,65.5 C58.8,60.4 56.6,54.1 56.6,46.5 C56.6,39.1 58.8,32.9 63.1,27.9 C67.4,22.9 73.4,20.4 81,20.4 C84.3,20.4 87.4,21.1 90.2,22.6 C93.1,24 95.4,26 97.2,28.4 L97.2,21.5 L97.1,21.5 Z M71.3,46.6 C71.3,50.7 72.5,54.2 74.9,57 C77.3,59.8 80.4,61.2 84.4,61.2 C88.2,61.2 91.4,60 93.9,57.6 C96.4,55.2 97.7,51.8 97.7,47.4 C97.7,42.8 96.4,39.1 93.9,36.4 C91.4,33.7 88.1,32.3 84,32.3 C80.1,32.3 77,33.7 74.8,36.4 C72.4,39.1 71.3,42.5 71.3,46.6 Z" id="Shape"></path>
                <path d="M124.4,65.6 C119.2,60.6 116.7,54.3 116.7,46.7 C116.7,39.1 119.3,32.8 124.4,27.8 C129.6,22.8 136.4,20.4 145,20.4 C152,20.4 158.9,22.9 165.7,27.9 L159,38.6 C155.2,35.2 150.8,33.6 145.7,33.6 C141.4,33.6 138,34.8 135.3,37.2 C132.7,39.6 131.4,42.8 131.4,46.7 C131.4,50.6 132.7,53.7 135.3,56.2 C137.9,58.7 141.4,59.8 145.7,59.8 C150.8,59.8 155.3,58.1 159,54.8 L165.7,65.5 C158.9,70.5 152,73 145,73 C136.4,73 129.6,70.6 124.4,65.6 Z" id="Path"></path>
                <path d="M184.9,42 L199.3,21.5 L215.6,21.5 L215.6,23.5 L198.8,44.6 L205.4,55.2 C207.4,58.2 209.7,59.7 212.3,59.7 C214.3,59.7 216.1,59.1 217.7,57.9 L223.2,68.3 C219.5,71.6 215.1,73.2 210,73.2 C203.6,73.2 198.6,70.6 195,65.5 L184.8,49.1 L184.8,72.1 L170.1,72.1 L170.1,0.8 L184.8,0.8 L184.8,42 L184.9,42 Z" id="Path"></path>
                <path d="M239.9,95.1 L225.2,95.1 L225.2,21.4 L239.9,21.4 L239.9,28.8 C243.8,23.1 249.1,20.3 255.8,20.3 C263.3,20.3 269.3,22.8 273.8,27.9 C278.3,33 280.5,39.3 280.5,46.9 C280.5,54.3 278.3,60.5 274,65.5 C269.7,70.5 263.7,73 256.1,73 C252.8,73 249.7,72.3 246.9,70.8 C244,69.4 241.7,67.4 239.9,65 L239.9,95.1 L239.9,95.1 Z M265.8,46.9 C265.8,42.8 264.6,39.3 262.2,36.5 C259.8,33.7 256.7,32.3 252.7,32.3 C248.9,32.3 245.7,33.5 243.2,35.9 C240.7,38.3 239.4,41.7 239.4,46.1 C239.4,50.7 240.6,54.4 243.2,57.1 C245.7,59.8 249,61.2 253.1,61.2 C257,61.2 260.1,59.8 262.3,57.1 C264.6,54.4 265.8,51 265.8,46.9 Z" id="Shape"></path>
                <path d="M325.3,21.5 L340,21.5 L340,72 L325.3,72 L325.3,64.6 C321.4,70.3 316.1,73.1 309.4,73.1 C301.9,73.1 295.9,70.6 291.5,65.5 C287,60.4 284.8,54.1 284.8,46.5 C284.8,39.1 287,32.9 291.3,27.9 C295.6,22.9 301.6,20.4 309.2,20.4 C312.5,20.4 315.6,21.1 318.4,22.6 C321.3,24 323.6,26 325.4,28.4 L325.3,21.5 L325.3,21.5 Z M299.5,46.6 C299.5,50.7 300.7,54.2 303.1,57 C305.5,59.8 308.6,61.2 312.6,61.2 C316.4,61.2 319.6,60 322.1,57.6 C324.6,55.2 325.9,51.8 325.9,47.4 C325.9,42.8 324.6,39.1 322.1,36.4 C319.6,33.7 316.3,32.3 312.2,32.3 C308.3,32.3 305.2,33.7 303,36.4 C300.6,39.1 299.5,42.5 299.5,46.6 Z" id="Shape"></path>
                <path d="M352.1,65.6 C346.9,60.6 344.4,54.3 344.4,46.7 C344.4,39.1 347,32.8 352.1,27.8 C357.3,22.8 364.1,20.4 372.7,20.4 C379.7,20.4 386.6,22.9 393.4,27.9 L386.7,38.6 C382.9,35.2 378.5,33.6 373.4,33.6 C369.1,33.6 365.7,34.8 363,37.2 C360.4,39.6 359.1,42.8 359.1,46.7 C359.1,50.6 360.4,53.7 363,56.2 C365.6,58.7 369.1,59.8 373.4,59.8 C378.5,59.8 383,58.1 386.7,54.8 L393.4,65.5 C386.6,70.5 379.7,73 372.7,73 C364.1,73 357.3,70.6 352.1,65.6 Z" id="Path"></path>
                <path d="M412.6,42 L427,21.5 L443.3,21.5 L443.3,23.5 L426.5,44.6 L433.1,55.2 C435.1,58.2 437.4,59.7 440,59.7 C442,59.7 443.8,59.1 445.4,57.9 L450.9,68.3 C447.2,71.6 442.8,73.2 437.7,73.2 C431.3,73.2 426.3,70.6 422.7,65.5 L412.5,49.1 L412.5,72.1 L397.8,72.1 L397.8,0.8 L412.5,0.8 L412.6,42 L412.6,42 Z" id="Path"></path>
            </g>
            <g id="Group">
                <path d="M10,101.7 L7.6,101.7 C6.3,101.7 5.2,100.6 5.2,99.3 L5.2,75 C5.2,73.7 6.3,72.6 7.6,72.6 L10,72.6 L10,101.7 Z" id="Path" fill="#0870E3"></path>
                <path d="M97.6,99.2 C97.6,100.5 96.5,101.6 95.2,101.6 L92.8,101.6 L92.8,72.4 L95.2,72.4 C96.5,72.4 97.6,73.5 97.6,74.8 L97.6,99.2 Z" id="Path" fill="#0870E3"></path>
                <g transform="translate(13.000000, 16.000000)">
                    <polygon id="Path" fill="#D1435B" points="75.6 17.4 0 17.4 0 17.4 16.6 0.2 61.5 0.2"></polygon>
                    <rect id="Rectangle" fill="#FF9400" x="0" y="13.1" width="75.6" height="21.4"></rect>
                    <rect id="Rectangle" fill="#FFB54C" x="0" y="32.4" width="75.6" height="19.3"></rect>
                    <rect id="Rectangle" fill="#03A698" x="0" y="49.5" width="75.6" height="19.3"></rect>
                    <rect id="Rectangle" fill="#0870E3" x="0" y="66.6" width="75.6" height="19.3"></rect>
                    <rect id="Rectangle" fill="#5A489B" x="0" y="85.9" width="75.6" height="17.2"></rect>
                </g>
                <rect id="Rectangle" fill="#03A698" x="22.6" y="76.8" width="57.5" height="34.2"></rect>
                <path d="M80.6,74.9 L22.2,74.9 C20.9,74.9 19.8,76 19.8,77.3 L19.8,111.4 C19.8,112.7 20.9,113.8 22.2,113.8 L80.6,113.8 C81.9,113.8 83,112.7 83,111.4 L83,77.3 C83,76 81.9,74.9 80.6,74.9 Z M78.1,109 L24.6,109 L24.6,92 L31.9,92 L36.8,92 L78.2,92 L78.2,109 L78.1,109 Z M78.1,87.1 L24.6,87.1 L24.6,79.8 L78.1,79.8 L78.1,87.1 Z" id="Shape" fill="#111236"></path>
                <path d="M33,91.9 L33,99.2 C33,100.5 34.1,101.6 35.4,101.6 C36.7,101.6 37.8,100.5 37.8,99.2 L37.8,91.9 L33,91.9 Z" id="Path" fill="#111236"></path>
                <path d="M95.2,67.6 L92.8,67.6 L92.8,43.3 C92.8,28.6 82.7,15.9 68.4,12.5 C67.5,3.2 60.7,0.3 51.5,0.3 C40.3,0.3 35.3,4.4 34.6,12.5 C20.3,15.9 10.2,28.6 10.2,43.3 L10.2,67.6 L7.8,67.6 C3.8,67.6 0.5,70.9 0.5,74.9 L0.5,99.2 C0.5,103.2 3.8,106.5 7.8,106.5 L10.2,106.5 L10.2,111.4 C10.2,118.1 15.6,123.6 22.4,123.6 L80.8,123.6 C87.5,123.6 93,118.2 93,111.4 L93,106.5 L95.4,106.5 C99.4,106.5 102.7,103.2 102.7,99.2 L102.7,74.9 C102.4,70.9 99.2,67.6 95.2,67.6 Z M10,101.7 L7.6,101.7 C6.3,101.7 5.2,100.6 5.2,99.3 L5.2,75 C5.2,73.7 6.3,72.6 7.6,72.6 L10,72.6 L10,101.7 Z M51.4,5.2 C58.8,5.2 61.4,6 62.6,11.7 L40.2,11.7 C41.4,6 45.6,5.2 51.4,5.2 Z M14.9,43.3 C14.9,28.5 26.9,16.6 41.7,16.5 L61.2,16.5 C76,16.5 87.9,28.5 88,43.3 L88,111.4 C88,115.4 84.7,118.7 80.7,118.7 L22.3,118.7 C18.3,118.7 15,115.4 15,111.4 L14.9,43.3 L14.9,43.3 Z M97.6,99.2 C97.6,100.5 96.5,101.6 95.2,101.6 L92.8,101.6 L92.8,72.4 L95.2,72.4 C96.5,72.4 97.6,73.5 97.6,74.8 L97.6,99.2 Z" id="Shape" fill="#111236"></path>
                <g transform="translate(27.000000, 32.000000)" fill="#111236" id="Path">
                    <path d="M24.4,30.7 C24.9,30.7 25.4,30.6 25.8,30.3 L31.1,27.3 C32.2,26.7 33.4,26.4 34.6,26.6 C41,27.3 45.5,28.5 46.8,28.9 C47.1,29 47.4,28.9 47.5,28.7 C47.7,28.4 48,28 48.2,27.4 C48.4,26.8 48.4,26.3 48.4,25.9 C48.4,25.6 48.2,25.3 47.9,25.3 C45.8,24.7 36.7,22.2 24.4,22.2 C12.1,22.2 3,24.7 0.9,25.3 C0.6,25.4 0.4,25.6 0.4,25.9 C0.4,26.2 0.4,26.7 0.6,27.4 C0.8,28.1 1.1,28.5 1.3,28.7 C1.5,28.9 1.8,29 2,28.9 C3.3,28.5 7.8,27.3 14.2,26.6 C15.4,26.5 16.6,26.7 17.7,27.3 L23,30.3 C23.4,30.6 23.9,30.7 24.4,30.7 Z"></path>
                    <path d="M15.6,13.7 C15.9,14.2 16.3,14.5 16.9,14.7 C17.4,14.8 18,14.8 18.5,14.5 C19,14.2 19.3,13.8 19.5,13.2 C19.7,12.6 19.6,12.1 19.3,11.6 L14.6,3.4 C14.5,3.1 14.1,3 13.9,3.1 C13.5,3.1 13,3.3 12.4,3.7 C11.8,4.1 11.3,4.4 11.1,4.7 C10.9,4.9 10.9,5.3 11,5.5 L15.6,13.7 Z"></path>
                    <path d="M11.3,19.6 C11.8,19.9 12.4,19.9 12.9,19.8 C13.4,19.7 13.9,19.3 14.2,18.8 C14.5,18.3 14.5,17.7 14.4,17.2 C14.3,16.7 13.9,16.2 13.4,15.9 L5.2,11.2 C4.9,11.1 4.6,11.1 4.4,11.3 C4.1,11.5 3.7,11.9 3.4,12.6 C3,13.2 2.8,13.8 2.8,14.1 C2.8,14.4 2.9,14.7 3.1,14.8 L11.3,19.6 Z"></path>
                    <path d="M26.5,10.8 C26.5,11.4 26.3,11.9 25.9,12.3 C25.5,12.7 25,12.9 24.4,12.9 C23.8,12.9 23.3,12.7 22.9,12.3 C22.5,11.9 22.3,11.4 22.3,10.8 L22.3,1.4 C22.3,1.1 22.5,0.8 22.8,0.7 C23.1,0.5 23.7,0.4 24.4,0.4 C25.1,0.4 25.7,0.5 26,0.7 C26.3,0.8 26.5,1.1 26.5,1.4 L26.5,10.8 Z"></path>
                    <path d="M33.1,13.7 C32.8,14.2 32.4,14.5 31.8,14.7 C31.3,14.8 30.7,14.8 30.2,14.5 C29.7,14.2 29.4,13.8 29.2,13.2 C29,12.6 29.1,12.1 29.4,11.6 L34.1,3.4 C34.2,3.1 34.6,3 34.8,3.1 C35.2,3.1 35.7,3.3 36.3,3.7 C36.9,4.1 37.4,4.4 37.6,4.7 C37.8,4.9 37.8,5.3 37.7,5.5 L33.1,13.7 Z"></path>
                    <path d="M37.5,19.6 C37,19.9 36.4,19.9 35.9,19.8 C35.4,19.7 34.9,19.3 34.6,18.8 C34.3,18.3 34.3,17.7 34.4,17.2 C34.5,16.7 34.9,16.2 35.4,15.9 L43.6,11.2 C43.9,11.1 44.2,11.1 44.4,11.3 C44.7,11.5 45.1,11.9 45.4,12.6 C45.8,13.2 46,13.8 46,14.1 C46,14.4 45.9,14.7 45.7,14.8 L37.5,19.6 Z"></path>
                </g>
            </g>
        </g>
    </g>
</svg>
